X:17
T:Planxty Madam Maxwell
T:Madame Maxwell
T:Mrs Maxwell
R:carolan
C:Turlough O'Carolan (1670-1738)
Z:id:hn-carolan-17
M:C|
L:1/8
Q:1/2=90
K:D
ABA2 AFD2|F2A2 A2d2|cdec defd|efge f3e|
d2A2 GFED|G2B2 B2d2|c2A2 e2dc|d4 d4:|
|:a2d2 a2gf|g2b2 b2ag|f2df a2gf|g2e2 e3g|
fgaf gabg|a2g2 f2e2|d2cd efed|c2A2 A2Bc|
d2d2 cBAG|F2D2 D3d|cde2 fed2|c2A2 A2Bc|
dcBA BAGF|G2B2 B3A|BAGF AGFE|D4 D4:|

